X:7701
T:Trois Matelots
O:england
C:Pennec, Tablatures 1
M:4/4
L:1/4
K:C
dc/B/ A>E|ABcB|dc/B/ A>E|ABcB:|\
|:A B/c/ B c/d/|eed/c/B|A B/c/ B c/d/|cBA2:|


